----

SENDING 0:G1F10000

--Grbl 1.1f ['$' for help]--

--[echo: G1F10000]--

G1F10000

matched
--ok--

continuing

--[echo: ]--

SENDING 1:M3S10

--ok--

--[echo: M3S10]--

M3S10

matched
--ok--

continuing

--[echo: ]--

SENDING 2:G0X0.0Y0.0

--ok--

--[echo: G0X0.0Y0.0]--

G0X0.0Y0.0

matched
--ok--

continuing

--[echo: ]--

SENDING 3:G0X610.0Y553.75

--ok--

--[echo: G0X610.0Y553.75]--

G0X610.0Y553.75

matched
--ok--

continuing

--[echo: ]--

SENDING 4:M3S200

--ok--

--[echo: M3S200]--

M3S200

matched
--ok--

continuing

--[echo: ]--

SENDING 5:G1X638.125Y553.75

--ok--

--[echo: ]--

--ok--

--[echo: ]--

--ok--

--[echo: ]--

--ok--

--[echo: ]--

--ok--

--[echo: ]--

--ok--

--[echo: ]--

--ok--

--[echo: ]--

--ok--

--[echo: ]--

--ok--

--[echo: ]--

--ok--

--[echo: ]--

--ok--

--[echo: ]--

--ok--

--[echo: ]--

--ok--

--[echo: ]--

--ok--

--[echo: ]--

--ok--

--[echo: ]--

--ok--

--[echo: ]--

--ok--

--[echo: ]--

--ok--

--[echo: ]--

--ok--

--[echo: ]--

--ok--

--[echo: ]--

--ok--

--[echo: ]--

--ok--

--[echo: ]--

--ok--

--[echo: ]--

--ok--

--[echo: ]--

--ok--

--[echo: ]--

--ok--

--[echo: ]--

--ok--

--[echo: ]--

--ok--

--[echo: ]--

--ok--

--[echo: ]--

--ok--

--[echo: ]--

--ok--

--[echo: ]--

--ok--

--[echo: ]--

--ok--

--[echo: ]--

--ok--

--[echo: ]--

--ok--

--[echo: ]--

--ok--

--[echo: ]--

--ok--

--[echo: ]--

--ok--

--[echo: ]--

--ok--

--[echo: ]--

--ok--

--[echo: ]--

--ok--

--[echo: ]--

--ok--

--[echo: ]--

--ok--

--[echo: ]--

--ok--

--[echo: ]--

--ok--

--[echo: ]--

--ok--

--[echo: ]--

--ok--

--[echo: G1X638.125Y553.75]--

G1X638.125Y553.75

matched
--ok--

continuing

--[echo: ]--

SENDING 6:G1X638.125Y300.625

--ok--

--[echo: ]--

--ok--

--[echo: ]--

--ok--

--[echo: ]--

--ok--

--[echo: ]--

--ok--

--[echo: ]--

--ok--

--[echo: ]--

--ok--

--[echo: ]--

--ok--

--[echo: ]--

--ok--

--[echo: ]--

--ok--

--[echo: G1X638.125Y300.625]--

G1X638.125Y300.625

matched
--ok--

continuing

--[echo: ]--

SENDING 7:G1X666.25Y300.625

--ok--

--[echo: ]--

--ok--

--[echo: ]--

--ok--

--[echo: G1X666.25Y300.625]--

G1X666.25Y300.625

matched
--ok--

continuing

--[echo: ]--

SENDING 8:G1X694.375Y300.625

--ok--

--[echo: G1X694.375Y300.625]--

G1X694.375Y300.625

matched
--ok--

continuing

--[echo: ]--

SENDING 9:G1X722.5Y300.625

--ok--

--[echo: G1X722.5Y300.625]--

G1X722.5Y300.625

matched
--ok--

continuing

--[echo: ]--

SENDING 10:G1X722.5Y328.75

--ok--

--[echo: G1X722.5Y328.75]--

G1X722.5Y328.75

matched
--ok--

continuing

--[echo: ]--

SENDING 11:G1X750.625Y328.75

--ok--

--[echo: G1X750.625Y328.75]--

G1X750.625Y328.75

matched
--ok--

continuing

--[echo: ]--

SENDING 12:G1X750.625Y356.875

--ok--

--[echo: G1X750.625Y356.875]--

G1X750.625Y356.875

matched
--ok--

continuing

--[echo: ]--

SENDING 13:G1X750.625Y385.0

--ok--

--[echo: G1X750.625Y385.0]--

G1X750.625Y385.0

matched
--ok--

continuing

--[echo: ]--

SENDING 14:G1X778.75Y385.0

--ok--

--[echo: G1X778.75Y385.0]--

G1X778.75Y385.0

matched
--ok--

continuing

--[echo: ]--

SENDING 15:G1X778.75Y356.875

--ok--

--[echo: G1X778.75Y356.875]--

G1X778.75Y356.875

matched
--ok--

continuing

--[echo: ]--

SENDING 16:G1X778.75Y413.125

--ok--

--[echo: G1X778.75Y413.125]--

G1X778.75Y413.125

matched
--ok--

continuing

--[echo: ]--

SENDING 17:G1X750.625Y413.125

--ok--

--[echo: G1X750.625Y413.125]--

G1X750.625Y413.125

matched
--ok--

continuing

--[echo: ]--

SENDING 18:G1X750.625Y300.625

--ok--

--[echo: G1X750.625Y300.625]--

G1X750.625Y300.625

matched
--ok--

continuing

--[echo: ]--

SENDING 19:G1X750.625Y225.625

--ok--

--[echo: G1X750.625Y225.625]--

G1X750.625Y225.625

matched
--ok--

continuing

--[echo: ]--

SENDING 20:G1X778.75Y225.625

--ok--

--[echo: G1X778.75Y225.625]--

G1X778.75Y225.625

matched
--ok--

continuing

--[echo: ]--

SENDING 21:G1X778.75Y253.75

--ok--

--[echo: G1X778.75Y253.75]--

G1X778.75Y253.75

matched
--ok--

continuing

--[echo: ]--

SENDING 22:G1X806.875Y253.75

--ok--

--[echo: G1X806.875Y253.75]--

G1X806.875Y253.75

matched
--ok--

continuing

--[echo: ]--

SENDING 23:G1X806.875Y225.625

--ok--

--[echo: G1X806.875Y225.625]--

G1X806.875Y225.625

matched
--ok--

continuing

--[echo: ]--

SENDING 24:G1X806.875Y150.625

--ok--

--[echo: G1X806.875Y150.625]--

G1X806.875Y150.625

matched
--ok--

continuing

--[echo: ]--

SENDING 25:G1X741.25Y150.625

--ok--

--[echo: ]--

--ok--

--[echo: ]--

--ok--

--[echo: G1X741.25Y150.625]--

G1X741.25Y150.625

matched
--ok--

continuing

--[echo: ]--

SENDING 26:G1X741.25Y122.5

--ok--

--[echo: ]--

--ok--

--[echo: ]--

--ok--

--[echo: ]--

--ok--

--[echo: G1X741.25Y122.5]--

G1X741.25Y122.5

matched
--ok--

continuing

--[echo: ]--

SENDING 27:G1X741.25Y94.375

--ok--

--[echo: ]--

--ok--

--[echo: ]--

--ok--

--[echo: G1X741.25Y94.375]--

G1X741.25Y94.375

matched
--ok--

continuing

--[echo: ]--

SENDING 28:G1X685.0Y94.375

--ok--

--[echo: ]--

--ok--

--[echo: ]--

--ok--

--[echo: G1X685.0Y94.375]--

G1X685.0Y94.375

matched
--ok--

continuing

--[echo: ]--

SENDING 29:G1X713.125Y94.375

--ok--

--[echo: ]--

--ok--

--[echo: ]--

--ok--

--[echo: G1X713.125Y94.375]--

G1X713.125Y94.375

matched
--ok--

continuing

--[echo: ]--

SENDING 30:G1X713.125Y122.5

--ok--

--[echo: ]--

--ok--

--[echo: ]--

--ok--

--[echo: ]--

--ok--

--[echo: G1X713.125Y122.5]--

G1X713.125Y122.5

matched
--ok--

continuing

--[echo: ]--

SENDING 31:G1X713.125Y66.25

--ok--

--[echo: ]--

--ok--

--[echo: ]--

--ok--

--[echo: ]--

--ok--

--[echo: G1X713.125Y66.25]--

G1X713.125Y66.25

matched
--ok--

continuing

--[echo: ]--

SENDING 32:G1X675.625Y66.25

--ok--

--[echo: ]--

--ok--

--[echo: ]--

--ok--

--[echo: ]--

--ok--

--[echo: ]--

--ok--

--[echo: ]--

--ok--

--[echo: G1X675.625Y66.25]--

G1X675.625Y66.25

matched
--ok--

continuing

--[echo: ]--

SENDING 33:G1X675.625Y28.75

--ok--

--[echo: ]--

--ok--

--[echo: ]--

--ok--

--[echo: ]--

--ok--

--[echo: G1X675.625Y28.75]--

G1X675.625Y28.75

matched
--ok--

continuing

--[echo: ]--

SENDING 34:G1X722.5Y28.75

--ok--

--[echo: ]--

--ok--

--[echo: ]--

--ok--

--[echo: ]--

--ok--

--[echo: ]--

--ok--

--[echo: ]--

--ok--

--[echo: ]--

--ok--

--[echo: G1X722.5Y28.75]--

G1X722.5Y28.75

matched
--ok--

continuing

--[echo: ]--

SENDING 35:G1X750.625Y28.75

--ok--

--[echo: ]--

--ok--

--[echo: ]--

--ok--

--[echo: ]--

--ok--

--[echo: ]--

--ok--

--[echo: G1X750.625Y28.75]--

G1X750.625Y28.75

matched
--ok--

continuing

--[echo: ]--

SENDING 36:G1X750.625Y66.25

--ok--

--[echo: ]--

--ok--

--[echo: ]--

--ok--

--[echo: ]--

--ok--

--[echo: G1X750.625Y66.25]--

G1X750.625Y66.25

matched
--ok--

continuing

--[echo: ]--

SENDING 37:G1X788.125Y66.25

--ok--

--[echo: ]--

--ok--

--[echo: ]--

--ok--

--[echo: ]--

--ok--

--[echo: G1X788.125Y66.25]--

G1X788.125Y66.25

matched
--ok--

continuing

--[echo: ]--

SENDING 38:G1X788.125Y28.75

--ok--

--[echo: ]--

--ok--

--[echo: ]--

--ok--

--[echo: ]--

--ok--

--[echo: G1X788.125Y28.75]--

G1X788.125Y28.75

matched
--ok--

continuing

--[echo: ]--

SENDING 39:G1X788.125Y94.375

--ok--

--[echo: ]--

--ok--

--[echo: G1X788.125Y94.375]--

G1X788.125Y94.375

matched
--ok--

continuing

--[echo: ]--

SENDING 40:G1X816.25Y94.375

--ok--

--[echo: ]--

--ok--

--[echo: ]--

--ok--

--[echo: ]--

--ok--

--[echo: ]--

--ok--

--[echo: ]--

--ok--

--[echo: G1X816.25Y94.375]--

G1X816.25Y94.375

matched
--ok--

continuing

--[echo: ]--

SENDING 41:G1X919.375Y94.375

--ok--

--[echo: ]--

--ok--

--[echo: ]--

--ok--

--[echo: ]--

--ok--

--[echo: ]--

--ok--

--[echo: ]--

--ok--

--[echo: G1X919.375Y94.375]--

G1X919.375Y94.375

matched
--ok--

continuing

--[echo: ]--

SENDING 42:G1X975.625Y94.375

--ok--

--[echo: ]--

--ok--

--[echo: ]--

--ok--

--[echo: G1X975.625Y94.375]--

G1X975.625Y94.375

matched
--ok--

continuing

--[echo: ]--

SENDING 43:G1X975.625Y66.25

--ok--

--[echo: ]--

--ok--

--[echo: G1X975.625Y66.25]--

G1X975.625Y66.25

matched
--ok--

continuing

--[echo: ]--

SENDING 44:G1X1003.75Y66.25

--ok--

--[echo: ]--

--ok--

--[echo: ]--

--ok--

--[echo: ]--

--ok--

--[echo: ]--

--ok--

--[echo: ]--

--ok--

--[echo: G1X1003.75Y66.25]--

G1X1003.75Y66.25

matched
--ok--

continuing

--[echo: ]--

SENDING 45:G1X1003.75Y94.375

--ok--

--[echo: ]--

--ok--

--[echo: ]--

--ok--

--[echo: ]--

--ok--

--[echo: G1X1003.75Y94.375]--

G1X1003.75Y94.375

matched
--ok--

continuing

--[echo: ]--

SENDING 46:G1X1050.625Y94.375

--ok--

--[echo: ]--

--ok--

--[echo: ]--

--ok--

--[echo: ]--

--ok--

--[echo: G1X1050.625Y94.375]--

G1X1050.625Y94.375

matched
--ok--

continuing

--[echo: ]--

SENDING 47:G1X1050.625Y131.875

--ok--

--[echo: ]--

--ok--

--[echo: ]--

--ok--

--[echo: ]--

--ok--

--[echo: ]--

--ok--

--[echo: ]--

--ok--

--[echo: G1X1050.625Y131.875]--

G1X1050.625Y131.875

matched
--ok--

continuing

--[echo: ]--

SENDING 48:G1X985.0Y131.875

--ok--

--[echo: ]--

--ok--

--[echo: ]--

--ok--

--[echo: ]--

--ok--

--[echo: G1X985.0Y131.875]--

G1X985.0Y131.875

matched
--ok--

continuing

--[echo: ]--

SENDING 49:G1X919.375Y131.875

--ok--

--[echo: ]--

--ok--

--[echo: ]--

--ok--

--[echo: ]--

--ok--

--[echo: ]--

--ok--

--[echo: G1X919.375Y131.875]--

G1X919.375Y131.875

matched
--ok--

continuing

--[echo: ]--

SENDING 50:G1X919.375Y160.0

--ok--

--[echo: ]--

--ok--

--[echo: ]--

--ok--

--[echo: G1X919.375Y160.0]--

G1X919.375Y160.0

matched
--ok--

continuing

--[echo: ]--

SENDING 51:G1X919.375Y66.25

--ok--

--[echo: ]--

--ok--

--[echo: ]--

--ok--

--[echo: G1X919.375Y66.25]--

G1X919.375Y66.25

matched
--ok--

continuing

--[echo: ]--

SENDING 52:G1X919.375Y19.375

--ok--

--[echo: ]--

--ok--

--[echo: ]--

--ok--

--[echo: ]--

--ok--

--[echo: ]--

--ok--

--[echo: G1X919.375Y19.375]--

G1X919.375Y19.375

matched
--ok--

continuing

--[echo: ]--

SENDING 53:G1X985.0Y19.375

--ok--

--[echo: ]--

--ok--

--[echo: ]--

--ok--

--[echo: ]--

--ok--

--[echo: G1X985.0Y19.375]--

G1X985.0Y19.375

matched
--ok--

continuing

--[echo: ]--

SENDING 54:G1X1060.0Y19.375

--ok--

--[echo: ]--

--ok--

--[echo: ]--

--ok--

--[echo: ]--

--ok--

--[echo: ]--

--ok--

--[echo: G1X1060.0Y19.375]--

G1X1060.0Y19.375

matched
--ok--

continuing

--[echo: ]--

SENDING 55:G1X1013.125Y19.375

--ok--

--[echo: ]--

--ok--

--[echo: ]--

--ok--

--[echo: ]--

--ok--

--[echo: ]--

--ok--

--[echo: ]--

--ok--

--[echo: G1X1013.125Y19.375]--

G1X1013.125Y19.375

matched
--ok--

continuing

--[echo: ]--

SENDING 56:G1X1172.5Y19.375

--ok--

--[echo: ]--

--ok--

--[echo: ]--

--ok--

--[echo: G1X1172.5Y19.375]--

G1X1172.5Y19.375

matched
--ok--

continuing

--[echo: ]--

SENDING 57:G1X1172.5Y66.25

--ok--

--[echo: ]--

--ok--

--[echo: ]--

--ok--

--[echo: ]--

--ok--

--[echo: ]--

--ok--

--[echo: G1X1172.5Y66.25]--

G1X1172.5Y66.25

matched
--ok--

continuing

--[echo: ]--

SENDING 58:G1X1172.5Y94.375

--ok--

--[echo: ]--

--ok--

--[echo: ]--

--ok--

--[echo: ]--

--ok--

--[echo: G1X1172.5Y94.375]--

G1X1172.5Y94.375

matched
--ok--

continuing

--[echo: ]--

SENDING 59:G1X1172.5Y131.875

--ok--

--[echo: ]--

--ok--

--[echo: ]--

--ok--

--[echo: ]--

--ok--

--[echo: G1X1172.5Y131.875]--

G1X1172.5Y131.875

matched
--ok--

continuing

--[echo: ]--

SENDING 60:G1X1153.75Y131.875

--ok--

--[echo: ]--

--ok--

--[echo: ]--

--ok--

--[echo: ]--

--ok--

--[echo: G1X1153.75Y131.875]--

G1X1153.75Y131.875

matched
--ok--

continuing

--[echo: ]--

SENDING 61:G1X1200.625Y131.875

--ok--

--[echo: ]--

--ok--

--[echo: ]--

--ok--

--[echo: ]--

--ok--

--[echo: G1X1200.625Y131.875]--

G1X1200.625Y131.875

matched
--ok--

continuing

--[echo: ]--

SENDING 62:G1X1200.625Y47.5

--ok--

--[echo: ]--

--ok--

--[echo: ]--

--ok--

--[echo: ]--

--ok--

--[echo: ]--

--ok--

--[echo: G1X1200.625Y47.5]--

G1X1200.625Y47.5

matched
--ok--

continuing

--[echo: ]--

SENDING 63:G1X1200.625Y19.375

--ok--

--[echo: ]--

--ok--

--[echo: ]--

--ok--

--[echo: ]--

--ok--

--[echo: ]--

--ok--

--[echo: G1X1200.625Y19.375]--

G1X1200.625Y19.375

matched
--ok--

continuing

--[echo: ]--

SENDING 64:G1X1200.625Y75.625

--ok--

--[echo: ]--

--ok--

--[echo: ]--

--ok--

--[echo: ]--

--ok--

--[echo: ]--

--ok--

--[echo: G1X1200.625Y75.625]--

G1X1200.625Y75.625

matched
--ok--

continuing

--[echo: ]--

SENDING 65:G1X1200.625Y103.75

--ok--

--[echo: ]--

--ok--

--[echo: ]--

--ok--

--[echo: ]--

--ok--

--[echo: G1X1200.625Y103.75]--

G1X1200.625Y103.75

matched
--ok--

continuing

--[echo: ]--

SENDING 66:G1X1153.75Y103.75

--ok--

--[echo: ]--

--ok--

--[echo: ]--

--ok--

--[echo: ]--

--ok--

--[echo: G1X1153.75Y103.75]--

G1X1153.75Y103.75

matched
--ok--

continuing

--[echo: ]--

SENDING 67:G1X1153.75Y150.625

--ok--

--[echo: ]--

--ok--

--[echo: ]--

--ok--

--[echo: ]--

--ok--

--[echo: ]--

--ok--

--[echo: ]--

--ok--

--[echo: G1X1153.75Y150.625]--

G1X1153.75Y150.625

matched
--ok--

continuing

--[echo: ]--

SENDING 68:G1X994.375Y150.625

--ok--

--[echo: ]--

--ok--

--[echo: ]--

--ok--

--[echo: ]--

--ok--

--[echo: G1X994.375Y150.625]--

G1X994.375Y150.625

matched
--ok--

continuing

--[echo: ]--

SENDING 69:G1X994.375Y225.625

--ok--

--[echo: ]--

--ok--

--[echo: ]--

--ok--

--[echo: ]--

--ok--

--[echo: ]--

--ok--

--[echo: G1X994.375Y225.625]--

G1X994.375Y225.625

matched
--ok--

continuing

--[echo: ]--

SENDING 70:G1X1022.5Y225.625

--ok--

--[echo: ]--

--ok--

--[echo: ]--

--ok--

--[echo: ]--

--ok--

--[echo: ]--

--ok--

--[echo: G1X1022.5Y225.625]--

G1X1022.5Y225.625

matched
--ok--

continuing

--[echo: ]--

SENDING 71:G1X966.25Y225.625

--ok--

--[echo: ]--

--ok--

--[echo: ]--

--ok--

--[echo: ]--

--ok--

--[echo: ]--

--ok--

--[echo: G1X966.25Y225.625]--

G1X966.25Y225.625

matched
--ok--

continuing

--[echo: ]--

SENDING 72:G1X966.25Y263.125

--ok--

--[echo: ]--

--ok--

--[echo: ]--

--ok--

--[echo: ]--

--ok--

--[echo: ]--

--ok--

--[echo: ]--

--ok--

--[echo: ]--

--ok--

--[echo: ]--

--ok--

--[echo: ]--

--ok--

--[echo: ]--

--ok--

--[echo: ]--

--ok--

--[echo: G1X966.25Y263.125]--

G1X966.25Y263.125

matched
--ok--

continuing

--[echo: ]--

SENDING 73:G1X985.0Y263.125

--ok--

--[echo: ]--

--ok--

--[echo: ]--

--ok--

--[echo: ]--

--ok--

--[echo: G1X985.0Y263.125]--

G1X985.0Y263.125

matched
--ok--

continuing

--[echo: ]--

SENDING 74:G1X910.0Y263.125

--ok--

--[echo: G1X910.0Y263.125]--

G1X910.0Y263.125

matched
--ok--

continuing

--[echo: ]--

SENDING 75:G1X910.0Y291.25

--ok--

--[echo: ]--

--ok--

--[echo: ]--

--ok--

--[echo: ]--

--ok--

--[echo: G1X910.0Y291.25]--

G1X910.0Y291.25

matched
--ok--

continuing

--[echo: ]--

SENDING 76:G1X816.25Y291.25

--ok--

--[echo: ]--

--ok--

--[echo: ]--

--ok--

--[echo: G1X816.25Y291.25]--

G1X816.25Y291.25

matched
--ok--

continuing

--[echo: ]--

SENDING 77:G1X610.0Y291.25

--ok--

--[echo: ]--

--ok--

--[echo: ]--

--ok--

--[echo: ]--

--ok--

--[echo: ]--

--ok--

--[echo: G1X610.0Y291.25]--

G1X610.0Y291.25

matched
--ok--

continuing

--[echo: ]--

SENDING 78:G1X581.875Y291.25

--ok--

--[echo: ]--

--ok--

--[echo: ]--

--ok--

--[echo: ]--

--ok--

--[echo: ]--

--ok--

--[echo: ]--

--ok--

--[echo: G1X581.875Y291.25]--

G1X581.875Y291.25

matched
--ok--

continuing

--[echo: ]--

SENDING 79:G1X553.75Y291.25

--ok--

--[echo: ]--

--ok--

--[echo: ]--

--ok--

--[echo: G1X553.75Y291.25]--

G1X553.75Y291.25

matched
--ok--

continuing

--[echo: ]--

SENDING 80:G1X553.75Y319.375

--ok--

--[echo: ]--

--ok--

--[echo: ]--

--ok--

--[echo: ]--

--ok--

--[echo: G1X553.75Y319.375]--

G1X553.75Y319.375

matched
--ok--

continuing

--[echo: ]--

SENDING 81:G1X525.625Y319.375

--ok--

--[echo: ]--

--ok--

--[echo: ]--

--ok--

--[echo: G1X525.625Y319.375]--

G1X525.625Y319.375

matched
--ok--

continuing

--[echo: ]--

SENDING 82:G1X497.5Y319.375

--ok--

--[echo: ]--

--ok--

--[echo: ]--

--ok--

--[echo: ]--

--ok--

--[echo: ]--

--ok--

--[echo: G1X497.5Y319.375]--

G1X497.5Y319.375

matched
--ok--

continuing

--[echo: ]--

SENDING 83:G1X497.5Y347.5

--ok--

--[echo: ]--

--ok--

--[echo: ]--

--ok--

--[echo: ]--

--ok--

--[echo: ]--

--ok--

--[echo: G1X497.5Y347.5]--

G1X497.5Y347.5

matched
--ok--

continuing

--[echo: ]--

SENDING 84:G1X469.375Y347.5

--ok--

--[echo: ]--

--ok--

--[echo: ]--

--ok--

--[echo: ]--

--ok--

--[echo: ]--

--ok--

--[echo: ]--

--ok--

--[echo: ]--

--ok--

--[echo: ]--

--ok--

--[echo: ]--

--ok--

--[echo: ]--

--ok--

--[echo: ]--

--ok--

--[echo: G1X469.375Y347.5]--

G1X469.375Y347.5

matched
--ok--

continuing

--[echo: ]--

SENDING 85:G1X469.375Y375.625

--ok--

--[echo: ]--

--ok--

--[echo: ]--

--ok--

--[echo: ]--

--ok--

--[echo: ]--

--ok--

--[echo: ]--

--ok--

--[echo: G1X469.375Y375.625]--

G1X469.375Y375.625

matched
--ok--

continuing

--[echo: ]--

SENDING 86:G1X469.375Y403.75

--ok--

--[echo: ]--

--ok--

--[echo: ]--

--ok--

--[echo: ]--

--ok--

--[echo: G1X469.375Y403.75]--

G1X469.375Y403.75

matched
--ok--

continuing

--[echo: ]--

SENDING 87:G1X441.25Y403.75

--ok--

--[echo: ]--

--ok--

--[echo: ]--

--ok--

--[echo: ]--

--ok--

--[echo: ]--

--ok--

--[echo: ]--

--ok--

--[echo: G1X441.25Y403.75]--

G1X441.25Y403.75

matched
--ok--

continuing

--[echo: ]--

SENDING 88:G1X441.25Y375.625

--ok--

--[echo: ]--

--ok--

--[echo: ]--

--ok--

--[echo: ]--

--ok--

--[echo: G1X441.25Y375.625]--

G1X441.25Y375.625

matched
--ok--

continuing

--[echo: ]--

SENDING 89:G1X441.25Y244.375

--ok--

--[echo: ]--

--ok--

--[echo: ]--

--ok--

--[echo: ]--

--ok--

--[echo: G1X441.25Y244.375]--

G1X441.25Y244.375

matched
--ok--

continuing

--[echo: ]--

SENDING 90:G1X441.25Y216.25

--ok--

--[echo: ]--

--ok--

--[echo: ]--

--ok--

--[echo: ]--

--ok--

--[echo: ]--

--ok--

--[echo: ]--

--ok--

--[echo: G1X441.25Y216.25]--

G1X441.25Y216.25

matched
--ok--

continuing

--[echo: ]--

SENDING 91:G1X413.125Y216.25

--ok--

--[echo: ]--

--ok--

--[echo: ]--

--ok--

--[echo: ]--

--ok--

--[echo: G1X413.125Y216.25]--

G1X413.125Y216.25

matched
--ok--

continuing

--[echo: ]--

SENDING 92:G1X413.125Y150.625

--ok--

--[echo: ]--

--ok--

--[echo: ]--

--ok--

--[echo: ]--

--ok--

--[echo: ]--

--ok--

--[echo: ]--

--ok--

--[echo: G1X413.125Y150.625]--

G1X413.125Y150.625

matched
--ok--

continuing

--[echo: ]--

SENDING 93:G1X488.125Y150.625

--ok--

--[echo: ]--

--ok--

--[echo: ]--

--ok--

--[echo: ]--

--ok--

--[echo: ]--

--ok--

--[echo: ]--

--ok--

--[echo: ]--

--ok--

--[echo: ]--

--ok--

--[echo: ]--

--ok--

--[echo: ]--

--ok--

--[echo: ]--

--ok--

--[echo: G1X488.125Y150.625]--

G1X488.125Y150.625

matched
--ok--

continuing

--[echo: ]--

SENDING 94:G1X488.125Y122.5

--ok--

--[echo: ]--

--ok--

--[echo: G1X488.125Y122.5]--

G1X488.125Y122.5

matched
--ok--

continuing

--[echo: ]--

SENDING 95:G1X460.0Y122.5

--ok--

--[echo: ]--

--ok--

--[echo: G1X460.0Y122.5]--

G1X460.0Y122.5

matched
--ok--

continuing

--[echo: ]--

SENDING 96:G1X460.0Y94.375

--ok--

--[echo: ]--

--ok--

--[echo: ]--

--ok--

--[echo: ]--

--ok--

--[echo: G1X460.0Y94.375]--

G1X460.0Y94.375

matched
--ok--

continuing

--[echo: ]--

SENDING 97:G1X460.0Y66.25

--ok--

--[echo: ]--

--ok--

--[echo: ]--

--ok--

--[echo: G1X460.0Y66.25]--

G1X460.0Y66.25

matched
--ok--

continuing

--[echo: ]--

SENDING 98:G1X488.125Y66.25

--ok--

--[echo: ]--

--ok--

--[echo: ]--

--ok--

--[echo: G1X488.125Y66.25]--

G1X488.125Y66.25

matched
--ok--

continuing

--[echo: ]--

SENDING 99:G1X488.125Y19.375

--ok--

--[echo: ]--

--ok--

--[echo: ]--

--ok--

--[echo: ]--

--ok--

--[echo: G1X488.125Y19.375]--

G1X488.125Y19.375

matched
--ok--

continuing

--[echo: ]--

SENDING 100:G1X460.0Y19.375

--ok--

--[echo: ]--

--ok--

--[echo: ]--

--ok--

--[echo: ]--

--ok--

--[echo: G1X460.0Y19.375]--

G1X460.0Y19.375

matched
--ok--

continuing

--[echo: ]--

SENDING 101:G1X413.125Y19.375

--ok--

--[echo: ]--

--ok--

--[echo: G1X413.125Y19.375]--

G1X413.125Y19.375

matched
--ok--

continuing

--[echo: ]--

SENDING 102:G1X413.125Y66.25

--ok--

--[echo: ]--

--ok--

--[echo: ]--

--ok--

--[echo: G1X413.125Y66.25]--

G1X413.125Y66.25

matched
--ok--

continuing

--[echo: ]--

SENDING 103:G1X413.125Y94.375

--ok--

--[echo: ]--

--ok--

--[echo: ]--

--ok--

--[echo: ]--

--ok--

--[echo: G1X413.125Y94.375]--

G1X413.125Y94.375

matched
--ok--

continuing

--[echo: ]--

SENDING 104:G1X413.125Y122.5

--ok--

--[echo: ]--

--ok--

--[echo: ]--

--ok--

--[echo: G1X413.125Y122.5]--

G1X413.125Y122.5

matched
--ok--

continuing

--[echo: ]--

SENDING 105:G1X516.25Y122.5

--ok--

--[echo: ]--

--ok--

--[echo: ]--

--ok--

--[echo: ]--

--ok--

--[echo: ]--

--ok--

--[echo: ]--

--ok--

--[echo: ]--

--ok--

--[echo: G1X516.25Y122.5]--

G1X516.25Y122.5

matched
--ok--

continuing

--[echo: ]--

SENDING 106:G1X516.25Y94.375

--ok--

--[echo: ]--

--ok--

--[echo: G1X516.25Y94.375]--

G1X516.25Y94.375

matched
--ok--

continuing

--[echo: ]--

SENDING 107:G1X516.25Y66.25

--ok--

--[echo: ]--

--ok--

--[echo: ]--

--ok--

--[echo: ]--

--ok--

--[echo: G1X516.25Y66.25]--

G1X516.25Y66.25

matched
--ok--

continuing

--[echo: ]--

SENDING 108:G1X516.25Y19.375

--ok--

--[echo: ]--

--ok--

--[echo: ]--

--ok--

--[echo: ]--

--ok--

--[echo: ]--

--ok--

--[echo: ]--

--ok--

--[echo: G1X516.25Y19.375]--

G1X516.25Y19.375

matched
--ok--

continuing

--[echo: ]--

SENDING 109:G1X553.75Y19.375

--ok--

--[echo: ]--

--ok--

--[echo: ]--

--ok--

--[echo: ]--

--ok--

--[echo: ]--

--ok--

--[echo: ]--

--ok--

--[echo: ]--

--ok--

--[echo: G1X553.75Y19.375]--

G1X553.75Y19.375

matched
--ok--

continuing

--[echo: ]--

SENDING 110:G1X553.75Y47.5

--ok--

--[echo: ]--

--ok--

--[echo: ]--

--ok--

--[echo: ]--

--ok--

--[echo: G1X553.75Y47.5]--

G1X553.75Y47.5

matched
--ok--

continuing

--[echo: ]--

SENDING 111:G1X525.625Y47.5

--ok--

--[echo: ]--

--ok--

--[echo: ]--

--ok--

--[echo: ]--

--ok--

--[echo: G1X525.625Y47.5]--

G1X525.625Y47.5

matched
--ok--

continuing

--[echo: ]--

SENDING 112:G1X478.75Y47.5

--ok--

--[echo: ]--

--ok--

--[echo: ]--

--ok--

--[echo: G1X478.75Y47.5]--

G1X478.75Y47.5

matched
--ok--

continuing

--[echo: ]--

SENDING 113:G1X478.75Y94.375

--ok--

--[echo: ]--

--ok--

--[echo: G1X478.75Y94.375]--

G1X478.75Y94.375

matched
--ok--

continuing

--[echo: ]--

SENDING 114:G1X478.75Y178.75

--ok--

--[echo: ]--

--ok--

--[echo: ]--

--ok--

--[echo: ]--

--ok--

--[echo: G1X478.75Y178.75]--

G1X478.75Y178.75

matched
--ok--

continuing

--[echo: ]--

SENDING 115:G1X478.75Y253.75

--ok--

--[echo: ]--

--ok--

--[echo: ]--

--ok--

--[echo: ]--

--ok--

--[echo: ]--

--ok--

--[echo: G1X478.75Y253.75]--

G1X478.75Y253.75

matched
--ok--

continuing

--[echo: ]--

SENDING 116:G1X478.75Y281.875

--ok--

--[echo: ]--

--ok--

--[echo: ]--

--ok--

--[echo: G1X478.75Y281.875]--

G1X478.75Y281.875

matched
--ok--

continuing

--[echo: ]--

SENDING 117:G1X450.625Y281.875

--ok--

--[echo: ]--

--ok--

--[echo: ]--

--ok--

--[echo: ]--

--ok--

--[echo: G1X450.625Y281.875]--

G1X450.625Y281.875

matched
--ok--

continuing

--[echo: ]--

SENDING 118:G1X450.625Y310.0

--ok--

--[echo: ]--

--ok--

--[echo: ]--

--ok--

--[echo: ]--

--ok--

--[echo: G1X450.625Y310.0]--

G1X450.625Y310.0

matched
--ok--

continuing

--[echo: ]--

SENDING 119:G1X450.625Y197.5

--ok--

--[echo: G1X450.625Y197.5]--

G1X450.625Y197.5

matched
--ok--

continuing

--[echo: ]--

SENDING 120:G1X506.875Y197.5

--ok--

--[echo: ]--

--ok--

--[echo: ]--

--ok--

--[echo: G1X506.875Y197.5]--

G1X506.875Y197.5

matched
